X: 49
T:Arkansas Traveler
M:4/4
L:1/8
Q:180
R:March
K:D
"D"DEFD "G"B,2B,2|"D"A,2A,2D2D2|"A"E2E2"D"F2F2|"A"EFEDB,2A,2|
"D"DEFD "G"B,2B,2|"D"A,2A,2D2 (3ABc|dcdA "G"B2AG|
1 "A7"FDE2"D"D4:|2 "A7"FDE2"D"D2|:
fg|"D"agfa "A"gfeg|"D"fedf "A"edBA|"D"dcdf "A"edeg|"D"fefd "A"e2fg|
"D"agfa "A"gfeg|"D"fedf "A"edBA|"D"dcdA "G"BdAG|"A7"FDEF"D"D2:|
